src/assets/icons/light_toggler_track.svg

<svg fill="none" height="33" viewBox="0 0 66 33" width="66" xmlns="http://www.w3.org/2000/svg"><rect fill="#60daff" height="33" rx="16.5" width="66"/><path d="m42.8444 24.2742c-.1897-3.1366-2.7933-5.6219-5.9775-5.6219-2.5682 0-4.7584 1.6167-5.6095 3.8876-2.2116.0267-3.9964 1.8268-3.9964 4.0448 0 2.2344 1.8115 4.0459 4.0459 4.0459h11.4264c1.7561 0 3.1797-1.4236 3.1797-3.1797 0-1.7188-1.3641-3.1181-3.0686-3.1767z" fill="#f0f5f7"/><path d="m45.9133 27.4505c0 1.756-1.4238 3.1798-3.1799 3.1798h-.2462c.2304-.4402.361-.9414.361-1.4724 0-1.7188-1.364-3.1183-3.0686-3.1771-.1899-3.1364-2.7935-5.6218-5.9777-5.6218-.4296 0-.8482.0453-1.2516.1311 1.0893-1.1329 2.6205-1.838 4.3167-1.838 3.1842 0 5.788 2.4849 5.9777 5.6218 1.7046.0582 3.0686 1.4577 3.0686 3.1766z" fill="#dde9ed"/><g fill="#f0f5f7"><path d="m41.2591 23.9404c-.1621 0-.3091-.1107-.3487-.2752-.0551-.2295-.1306-.4557-.2243-.6723-.0787-.1818.0049-.393.1869-.4719.1818-.0786.3931.005.4719.187.1102.2543.1987.5199.2636.7894.0462.1929-.0724.3866-.2651.4329-.0283.0068-.0565.0101-.0843.0101z"/><path d="m40.1277 21.8749c-.0943 0-.1886-.0371-.259-.1106-.7936-.8268-1.8597-1.2821-3.0019-1.2821-.1982 0-.359-.1606-.359-.3588s.1608-.359.359-.359c1.3394 0 2.5895.5338 3.5197 1.503.1372.1431.1326.3702-.0105.5074-.0695.0667-.159.1001-.2483.1001z"/><path d="m46.861 5.79996c.1474-2.43553 2.1689-4.36515 4.6412-4.36515 1.994 0 3.6946 1.25528 4.3555 3.01846 1.7172.0208 3.1029 1.41851 3.1029 3.14048 0 1.73498-1.4063 3.14145-3.1413 3.14145-.7263 0-8.1257 0-8.8721 0-1.3635 0-2.4689-1.10521-2.4689-2.4687 0-1.33449 1.0592-2.42113 2.3827-2.46654z"/></g><path d="m58.9607 7.59395c0 1.71997-1.3831 3.11725-3.0982 3.14065.5141-.5597.8278-1.30525.8278-2.12443 0-1.72177-1.3857-3.11968-3.1033-3.14068-.6608-1.76298-2.3613-3.01846-4.3556-3.01846-.2356 0-.4671.01781-.6933.05162.8044-.66695 1.8372-1.06784 2.9638-1.06784 1.9943 0 3.6948 1.25488 4.3556 3.01866 1.7175.0208 3.1032 1.41811 3.1032 3.14048z" fill="#dde9ed"/></svg>

<svg width="66" height="33" viewBox="0 0 66 33" fill="none" xmlns="http://www.w3.org/2000/svg">
<rect width="66" height="33" rx="16.5" fill="#60DAFF"/>
<path d="M42.8444 24.2742C42.6547 21.1376 40.0511 18.6523 36.8669 18.6523C34.2987 18.6523 32.1085 20.269 31.2574 22.5399C29.0458 22.5666 27.261 24.3667 27.261 26.5847C27.261 28.8191 29.0725 30.6306 31.3069 30.6306H42.7333C44.4894 30.6306 45.913 29.207 45.913 27.4509C45.913 25.7321 44.5489 24.3328 42.8444 24.2742Z" fill="#F0F5F7"/>
<path d="M45.9133 27.4505C45.9133 29.2065 44.4895 30.6303 42.7334 30.6303H42.4872C42.7176 30.1901 42.8482 29.6889 42.8482 29.1579C42.8482 27.4391 41.4842 26.0396 39.7796 25.9808C39.5897 22.8444 36.9861 20.359 33.8019 20.359C33.3723 20.359 32.9537 20.4043 32.5503 20.4901C33.6396 19.3572 35.1708 18.6521 36.867 18.6521C40.0512 18.6521 42.655 21.137 42.8447 24.2739C44.5493 24.3321 45.9133 25.7316 45.9133 27.4505Z" fill="#DDE9ED"/>
<path d="M41.2591 23.9404C41.097 23.9404 40.95 23.8297 40.9104 23.6652C40.8553 23.4357 40.7798 23.2095 40.6861 22.9929C40.6074 22.8111 40.691 22.5999 40.873 22.521C41.0548 22.4424 41.2661 22.526 41.3449 22.708C41.4551 22.9623 41.5436 23.2279 41.6085 23.4974C41.6547 23.6903 41.5361 23.884 41.3434 23.9303C41.3151 23.9371 41.2869 23.9404 41.2591 23.9404Z" fill="#F0F5F7"/>
<path d="M40.1277 21.8749C40.0334 21.8749 39.9391 21.8378 39.8687 21.7643C39.0751 20.9375 38.009 20.4822 36.8668 20.4822C36.6686 20.4822 36.5078 20.3216 36.5078 20.1234C36.5078 19.9252 36.6686 19.7644 36.8668 19.7644C38.2062 19.7644 39.4563 20.2982 40.3865 21.2674C40.5237 21.4105 40.5191 21.6376 40.376 21.7748C40.3065 21.8415 40.217 21.8749 40.1277 21.8749Z" fill="#F0F5F7"/>
<path d="M46.861 5.79996C47.0084 3.36443 49.0299 1.43481 51.5022 1.43481C53.4962 1.43481 55.1968 2.69009 55.8577 4.45327C57.5749 4.47407 58.9606 5.87178 58.9606 7.59375C58.9606 9.32873 57.5543 10.7352 55.8193 10.7352C55.093 10.7352 47.6936 10.7352 46.9472 10.7352C45.5837 10.7352 44.4783 9.62999 44.4783 8.2665C44.4783 6.93201 45.5375 5.84537 46.861 5.79996Z" fill="#F0F5F7"/>
<path d="M58.9607 7.59395C58.9607 9.31392 57.5776 10.7112 55.8625 10.7346C56.3766 10.1749 56.6903 9.42935 56.6903 8.61017C56.6903 6.8884 55.3046 5.49049 53.587 5.46949C52.9262 3.70651 51.2257 2.45103 49.2314 2.45103C48.9958 2.45103 48.7643 2.46884 48.5381 2.50265C49.3425 1.8357 50.3753 1.43481 51.5019 1.43481C53.4962 1.43481 55.1967 2.68969 55.8575 4.45347C57.575 4.47427 58.9607 5.87158 58.9607 7.59395Z" fill="#DDE9ED"/>
</svg>
